X:36
T:MADAM CABRIN'S HORNPIPE
B:John of the Greeny Cheshire Way
N: John Offord, Reproduced with permission
M:3/2
L:1/8
K:C
P:1
e2 c4    G2 E4   | D2 d4    a2 g2 f2 | e2 c4    G2 E4   | C2 c4 a2 g2 f2 ||
P:2
e2 c2 g2 c2 e2 c2| f2 d4    a2 g2 f2 | e2 c2 g2 c2 e2 c2| g2 c2 e2 c2 f2 d2||
P:3
e2 c2 g2 c2 e2 c2| a2 f2 d2 a2 a2 gf | e2 c4    C2 EFGE | C2 c4 a2   g2 f2||
P:4
e2 c2 G2 A2 E2 G2| D2 d4    ef  gfed | e2 c2 G2 A2 E2 G2| C2 c2 efge defg ||
P:5
e2 c4    C2 E4   | D2 d4    a2 g2 f2 | e2 c4    C2 EFGE | C2 c4 e2   defg ||
P:6
e2 c2 g2 c2 efge | f2 d2 a2 d2 fgaf  | e2 c2 g2 e2 efge | g2 c2 dfge fgaf ||
P:7
e2 c2 g2 c2 efge | agfe  d2 a2 fgaf  | gfed  cBAG  EFGE | C2 c2 efge defg |]
